X:560
T:Farewell to Fiunary
Z:Jack Campin, http://www.campin.me.uk/
F:Jack Campin's Nine-Note Tunebook
% last edit 03-02-2013
M:6/8
L:1/8
Q:3/8=72
K:F
F2F c2A|G2F E2G|A2D D2E|D2C C3 |
D2D F2F|G2G c2c|d2d c2A|G2F F3|]

